X: 116
T: Dudar he maria
%%abc-version 2.0
%%abcx-abcm2ps-target-version 5.9.1 (29 Sep 2008)
%%abc-creator hum2abc beta
%%abcx-conversion-date 2013/10/02 07:44:27
%%abc-edited-by Helmut Schaffrath
%%humdrum-veritas 2352727891
%%humdrum-veritas-data 3131428535
%%continueall 1
%%barnumbers 0
L: 1/8
M: 2/4
K: D
D> EF2 [I:setbarnb 1]| 
G A G F | 
E2z2 | 
F E F G | 
A4 | 
D> EF2 | 
G A G F | 
E2z2 | 
F G F E | 
D4 | 
A2d2 | 
d e f e | 
e d c B | 
A2d2 | 
d e f e | 
d f e d | 
c e d c | 
B4 | 
B d d c | 
d BA2 | 
A B B A | 
B A F3/ E/ | 
D EF2 | 
A> G G F | 
F A E E | 
D4 |]  



